source/img/icon-yes.svg

<svg width="31" height="21" viewBox="0 0 31 21" fill="none" xmlns="http://www.w3.org/2000/svg">
<path d="M30.5559 0.429509C30.4134 0.293412 30.2439 0.185389 30.0571 0.111671C29.8703 0.0379536 29.67 0 29.4676 0C29.2653 0 29.065 0.0379536 28.8782 0.111671C28.6914 0.185389 28.5219 0.293412 28.3794 0.429509L10.3744 17.4958L2.5777 10.1097C2.28714 9.85325 1.90283 9.71362 1.50573 9.72025C1.10864 9.72689 0.72977 9.87928 0.448939 10.1453C0.168108 10.4114 0.00724504 10.7703 0.0002388 11.1464C-0.00676744 11.5226 0.140631 11.8867 0.41138 12.1619L9.29124 20.5741C9.4331 20.7094 9.60187 20.8167 9.7878 20.8898C9.97372 20.9629 10.1731 21.0004 10.3744 21C10.7806 20.9986 11.1698 20.8456 11.4576 20.5741L30.5559 2.48172C30.8405 2.20822 31 1.83963 31 1.45561C31 1.0716 30.8405 0.703003 30.5559 0.429509Z" fill="#3DC644"/>
</svg>

<svg width="31" height="21" fill="none" xmlns="http://www.w3.org/2000/svg">
  <path d="M30.56.43a1.54 1.54 0 00-1.1-.43 1.6 1.6 0 00-1.08.43l-18 17.07-7.8-7.39a1.58 1.58 0 00-2.13.04c-.28.26-.44.62-.45 1 0 .37.14.74.41 1.01l8.88 8.41a1.53 1.53 0 001.08.43c.41 0 .8-.15 1.09-.43l19.1-18.09c.28-.27.44-.64.44-1.02 0-.39-.16-.76-.44-1.03z" fill="#3DC644"/>
</svg>
